tools/download-figma-icons/icons/outlined-large/remote-control.svg

<svg width="64" height="65" viewBox="0 0 64 65" fill="none" xmlns="http://www.w3.org/2000/svg">
<path fill-rule="evenodd" clip-rule="evenodd" d="M62.2029 30.2676C62.2549 30.2726 62.3069 30.2756 62.3579 30.2756C63.1169 30.2756 63.7689 29.7006 63.8479 28.9286C64.6519 21.0996 61.8839 13.3796 56.2519 7.74661C50.5949 2.08961 42.8459 -0.678387 34.9909 0.141613C34.1669 0.228613 33.5689 0.965613 33.6549 1.79061C33.7409 2.61361 34.4819 3.20561 35.3029 3.12661C42.2599 2.39261 49.1169 4.85461 54.1299 9.86761C59.1949 14.9326 61.5859 21.5926 60.8639 28.6226C60.7789 29.4466 61.3789 30.1826 62.2029 30.2676ZM55.5625 30.2981C55.4975 30.2981 55.4305 30.2941 55.3645 30.2851C54.5425 30.1771 53.9645 29.4231 54.0735 28.6021C54.7575 23.4241 53.0345 18.3391 49.3465 14.6521C45.6015 10.9071 40.5075 9.18711 35.3615 9.92911C34.5465 10.0501 33.7805 9.47911 33.6625 8.65911C33.5435 7.83911 34.1125 7.07811 34.9325 6.96011C41.0185 6.08011 47.0475 8.11011 51.4675 12.5301C55.8205 16.8831 57.8545 22.8841 57.0475 28.9941C56.9485 29.7491 56.3035 30.2981 55.5625 30.2981ZM24.5853 23.1936C26.7353 21.0446 29.5933 19.8606 32.6333 19.8606C35.6733 19.8606 38.5303 21.0446 40.6803 23.1936C42.8303 25.3426 44.0143 28.2016 44.0143 31.2416C44.0143 34.2806 42.8303 37.1386 40.7453 39.2276L19.3633 58.2246C15.0383 61.8986 9.26728 61.9326 5.64028 58.3076C2.09128 54.7586 2.12928 48.8566 5.70428 44.6056L24.5853 23.1936ZM3.51928 60.4286C5.91128 62.8206 8.98928 64.0186 12.1683 64.0186C15.3143 64.0186 18.5593 62.8436 21.3313 60.4896L42.8013 41.4096C48.4083 35.8026 48.4083 26.6786 42.8013 21.0726C37.1943 15.4646 28.0713 15.4666 22.4003 21.1406L3.43128 42.6476C-1.17672 48.1266 -1.13972 55.7706 3.51928 60.4286ZM24.7764 32.5774C25.6754 31.6794 26.8554 31.2294 28.0364 31.2294C29.2164 31.2294 30.3974 31.6794 31.2954 32.5774C33.0924 34.3754 33.0924 37.3004 31.2954 39.0974C29.4984 40.8934 26.5744 40.8944 24.7764 39.0974C22.9794 37.3004 22.9794 34.3754 24.7764 32.5774ZM22.6554 41.2194C24.1384 42.7024 26.0874 43.4444 28.0364 43.4444C29.9844 43.4444 31.9334 42.7024 33.4174 41.2194C36.3834 38.2514 36.3834 33.4234 33.4174 30.4564C30.4504 27.4894 25.6224 27.4894 22.6554 30.4564C19.6884 33.4234 19.6884 38.2514 22.6554 41.2194Z" fill="black"/>
</svg>

<svg width="64" height="65" viewBox="0 0 64 65" fill="none" xmlns="http://www.w3.org/2000/svg"><path fill-rule="evenodd" clip-rule="evenodd" d="M62.203 30.268a1.5 1.5 0 0 0 1.645-1.339c.804-7.83-1.964-15.55-7.596-21.182C50.595 2.09 42.846-.678 34.99.142a1.501 1.501 0 0 0-1.336 1.649 1.508 1.508 0 0 0 1.648 1.336c6.957-.734 13.814 1.728 18.827 6.74 5.065 5.066 7.456 11.726 6.734 18.756a1.5 1.5 0 0 0 1.339 1.645Zm-6.64.03a1.499 1.499 0 0 1-1.489-1.696c.684-5.178-1.04-10.263-4.727-13.95-3.745-3.745-8.84-5.465-13.986-4.723a1.5 1.5 0 0 1-.428-2.969c6.086-.88 12.114 1.15 16.535 5.57 4.352 4.353 6.386 10.354 5.58 16.464a1.5 1.5 0 0 1-1.486 1.304Zm-30.978-7.104a11.31 11.31 0 0 1 8.048-3.333c3.04 0 5.897 1.184 8.047 3.333a11.305 11.305 0 0 1 3.334 8.048c0 3.039-1.184 5.897-3.269 7.986L19.363 58.225c-4.325 3.674-10.096 3.708-13.723.083-3.549-3.55-3.51-9.451.064-13.702l18.881-21.412ZM3.52 60.429a12.11 12.11 0 0 0 8.65 3.59c3.145 0 6.39-1.175 9.162-3.53l21.47-19.08c5.607-5.606 5.607-14.73 0-20.336-5.607-5.608-14.73-5.606-20.4.068L3.43 42.648c-4.608 5.479-4.57 13.123.088 17.78Zm21.257-27.852a4.599 4.599 0 0 1 3.26-1.348 4.6 4.6 0 0 1 3.26 1.348 4.617 4.617 0 0 1 0 6.52 4.616 4.616 0 0 1-6.52 0 4.617 4.617 0 0 1 0-6.52Zm-2.12 8.642a7.587 7.587 0 0 0 5.38 2.225 7.59 7.59 0 0 0 5.381-2.225c2.966-2.968 2.966-7.796 0-10.763-2.967-2.967-7.795-2.967-10.762 0-2.967 2.967-2.967 7.795 0 10.763Z" fill="currentColor"/></svg>
